img/svg/btn-up.svg

<svg fill="none" height="73" viewBox="0 0 74 73" width="74" xmlns="http://www.w3.org/2000/svg" xmlns:xlink="http://www.w3.org/1999/xlink"><filter id="a" color-interpolation-filters="sRGB" filterUnits="userSpaceOnUse" height="72.7708" width="74" x="0" y="0"><feFlood flood-opacity="0" result="BackgroundImageFix"/><feColorMatrix in="SourceAlpha" type="matrix" values="0 0 0 0 0 0 0 0 0 0 0 0 0 0 0 0 0 0 127 0"/><feOffset dx="5" dy="5"/><feGaussianBlur stdDeviation="5"/><feColorMatrix type="matrix" values="0 0 0 0 0 0 0 0 0 0 0 0 0 0 0 0 0 0 0.25 0"/><feBlend in2="BackgroundImageFix" mode="multiply" result="effect1_dropShadow"/><feBlend in="SourceGraphic" in2="effect1_dropShadow" mode="normal" result="shape"/></filter><linearGradient id="b" gradientUnits="userSpaceOnUse" x1="5.22925" x2="59" y1="31" y2="31"><stop offset=".00000000021" stop-color="#f86544"/><stop offset="1" stop-color="#d83b17"/></linearGradient><g filter="url(#a)"><ellipse cx="32" cy="31.3854" fill="url(#b)" rx="27" ry="26.3854"/></g><path d="m33.0607 17.9393c-.5858-.5857-1.5356-.5857-2.1214 0l-9.5459 9.546c-.5858.5858-.5858 1.5355 0 2.1213s1.5355.5858 2.1213 0l8.4853-8.4853 8.4853 8.4853c.5858.5858 1.5355.5858 2.1213 0s.5858-1.5355 0-2.1213zm.4393 25.0607v-24h-3v24z" fill="#fff"/></svg>

<svg width="74" height="73" viewBox="0 0 74 73" fill="none" xmlns="http://www.w3.org/2000/svg">
<g filter="url(#filter0_d)">
<ellipse cx="32" cy="31.3854" rx="27" ry="26.3854" fill="url(#paint0_linear)"/>
</g>
<path d="M33.0607 17.9393C32.4749 17.3536 31.5251 17.3536 30.9393 17.9393L21.3934 27.4853C20.8076 28.0711 20.8076 29.0208 21.3934 29.6066C21.9792 30.1924 22.9289 30.1924 23.5147 29.6066L32 21.1213L40.4853 29.6066C41.0711 30.1924 42.0208 30.1924 42.6066 29.6066C43.1924 29.0208 43.1924 28.0711 42.6066 27.4853L33.0607 17.9393ZM33.5 43L33.5 19L30.5 19L30.5 43L33.5 43Z" fill="white"/>
<defs>
<filter id="filter0_d" x="0" y="0" width="74" height="72.7708" filterUnits="userSpaceOnUse" color-interpolation-filters="sRGB">
<feFlood flood-opacity="0" result="BackgroundImageFix"/>
<feColorMatrix in="SourceAlpha" type="matrix" values="0 0 0 0 0 0 0 0 0 0 0 0 0 0 0 0 0 0 127 0"/>
<feOffset dx="5" dy="5"/>
<feGaussianBlur stdDeviation="5"/>
<feColorMatrix type="matrix" values="0 0 0 0 0 0 0 0 0 0 0 0 0 0 0 0 0 0 0.25 0"/>
<feBlend mode="multiply" in2="BackgroundImageFix" result="effect1_dropShadow"/>
<feBlend mode="normal" in="SourceGraphic" in2="effect1_dropShadow" result="shape"/>
</filter>
<linearGradient id="paint0_linear" x1="5.22925" y1="31" x2="59" y2="31" gradientUnits="userSpaceOnUse">
<stop offset="2.06961e-10" stop-color="#F86544"/>
<stop offset="1" stop-color="#D83B17"/>
</linearGradient>
</defs>
</svg>
